src/icons/forum.svg

<?xml version="1.0" encoding="UTF-8"?><svg enable-background="new 0 0 1000 1000" fill="#FFFFFF" version="1.1" viewBox="0 0 1e3 1e3" xml:space="preserve" xmlns="http://www.w3.org/2000/svg"><path d="m898.4 96.9c21.9 0 39.7 17.8 39.7 39.7v479.4c0 21.9-17.8 39.7-39.7 39.7h-438.1l-277.8 198.4v-198.4h-80.9c-21.9 0-39.7-17.8-39.7-39.7v-479.4c0-21.9 17.8-39.7 39.7-39.7h796.8m0-51.8h-796.8c-50.5 0-91.6 41-91.6 91.5v479.4c0 50.5 41.1 91.6 91.6 91.6h29.1v247.4l82-58.6 264.3-188.8h421.5c50.5 0 91.6-41.1 91.6-91.6v-479.4c-0.1-50.5-41.2-91.5-91.7-91.5z"/><path d="m173.5 371.8c0 44.8 36.3 81.1 81.1 81.1s81.1-36.3 81.1-81.1-36.3-81.1-81.1-81.1c-44.8-0.1-81.1 36.3-81.1 81.1z"/><path d="m418.8 371.8c0 44.8 36.3 81.1 81.1 81.1s81.1-36.3 81.1-81.1-36.3-81.1-81.1-81.1c-44.7-0.1-81.1 36.3-81.1 81.1z"/><path d="m659.2 371.8c0 44.8 36.3 81.1 81.1 81.1s81.2-36.3 81.2-81.1-36.3-81.1-81.2-81.1c-44.8-0.1-81.1 36.3-81.1 81.1z"/></svg>

<?xml version="1.0" encoding="utf-8"?>
<svg version="1.1" xmlns="http://www.w3.org/2000/svg" xmlns:xlink="http://www.w3.org/1999/xlink" x="0px" y="0px" viewBox="0 0 1000 1000" enable-background="new 0 0 1000 1000" xml:space="preserve" fill="#FFFFFF">
<g><path d="M898.4,96.9c21.9,0,39.7,17.8,39.7,39.7V616c0,21.9-17.8,39.7-39.7,39.7H460.3L182.5,854.1V655.7h-80.9c-21.9,0-39.7-17.8-39.7-39.7V136.6c0-21.9,17.8-39.7,39.7-39.7L898.4,96.9 M898.4,45.1H101.6C51.1,45.1,10,86.1,10,136.6V616c0,50.5,41.1,91.6,91.6,91.6h29.1v146.6v100.8l82-58.6l264.3-188.8h421.5c50.5,0,91.6-41.1,91.6-91.6V136.6C990,86.1,948.9,45.1,898.4,45.1L898.4,45.1z"/><path d="M173.5,371.8c0,44.8,36.3,81.1,81.1,81.1c44.8,0,81.1-36.3,81.1-81.1l0,0c0-44.8-36.3-81.1-81.1-81.1C209.8,290.6,173.5,327,173.5,371.8L173.5,371.8z"/><path d="M418.8,371.8c0,44.8,36.3,81.1,81.1,81.1c44.8,0,81.1-36.3,81.1-81.1c0-44.8-36.3-81.1-81.1-81.1C455.2,290.6,418.8,327,418.8,371.8z"/><path d="M659.2,371.8c0,44.8,36.3,81.1,81.1,81.1c44.8,0,81.2-36.3,81.2-81.1c0-44.8-36.3-81.1-81.2-81.1C695.5,290.6,659.2,327,659.2,371.8z"/></g>
</svg>
